; generated by PrusaSlicer 2.9.4 on 2025-11-17 at 20:10:04 UTC


;
;
; 

; external perimeters extrusion width = 0.45mm
; perimeters extrusion width = 0.45mm
; infill extrusion width = 0.45mm
; solid infill extrusion width = 0.45mm
; top infill extrusion width = 0.40mm
; first layer extrusion width = 0.42mm

M73 P0 R38
M73 Q0 S38
M201 X1000 Y1000 Z200 E5000 ; sets maximum accelerations, mm/sec^2
M203 X200 Y200 Z12 E120 ; sets maximum feedrates, mm / sec
M204 S1250 T1250 ; sets acceleration (S) and retract acceleration (R), mm/sec^2
M205 X8.00 Y8.00 Z0.40 E4.50 ; sets the jerk limits, mm/sec
M205 S0 T0 ; sets the minimum extruding and travel feed rate, mm/sec

; printing object box-with-tri-hole.stl id:0 copy 0
; stop printing object box-with-tri-hole.stl id:0 copy 0

;TYPE:Custom
M862.3 P "MK3S" ; printer model check
M862.1 P0.4 ; nozzle diameter check
M115 U3.14.1 ; tell printer latest fw version
G90 ; use absolute coordinates
M83 ; extruder relative mode
M104 S215 ; set extruder temp
M140 S60 ; set bed temp
M190 S60 ; wait for bed temp
M109 S215 ; wait for extruder temp
G28 W ; home all without mesh bed level
G80 X102.623 Y82.6229 W44.7542 H44.7542 ; mesh bed levelling

G1 Z0.2 F720
G1 Y-3 F1000 ; go outside print area
G92 E0
G1 X60 E9 F1000 ; intro line
G1 X100 E12.5 F1000 ; intro line

G92 E0
M221 S95

; Don't change E values below. Excessive value can damage the printer.
M907 E430 ; set extruder motor current
G21 ; set units to millimeters
G90 ; use absolute coordinates
M83 ; use relative distances for extrusion

M900 K0.05 ; Filament gcode LA 1.5
M900 K30 ; Filament gcode LA 1.0




M107
;LAYER_CHANGE
;Z:0.2
;HEIGHT:0.2
G1 E-.8 F2100
G1 Z.6 F720
G1 X103.202 Y83.752 F10800
G1 Z.2 F720
G1 E.8 F2100
M204 S800
;TYPE:Skirt/Brim
;WIDTH:0.42
G1 F1200
G1 X104.235 Y82.949 E.04102
G1 X105 Y82.811 E.02437
G1 X145 Y82.811 E1.25417
G1 X146.248 Y83.202 E.04101
G1 X147.051 Y84.235 E.04102
G1 X147.189 Y85 E.02437
G1 X147.189 Y125 E1.25417
G1 X146.798 Y126.248 E.04101
G1 X145.765 Y127.051 E.04102
G1 X145 Y127.189 E.02437
G1 X105 Y127.189 E1.25417
G1 X103.752 Y126.798 E.04101
G1 X102.949 Y125.765 E.04102
G1 X102.811 Y125 E.02437
G1 X102.811 Y85 E1.25417
G1 X103.184 Y83.809 E.03913
M204 S1000
;WIPE_START
G1 F8640
G1 X103.202 Y83.752 E-.0138
G1 X104.235 Y82.949 E-.30211
G1 X105 Y82.811 E-.17949
G1 X106.319 Y82.811 E-.3046
;WIPE_END
G1 Z.6 F720
; printing object box-with-tri-hole.stl id:0 copy 0
G1 X125.682 Y112.894 F10800
G1 Z.2 F720
G1 E.8 F2100
M204 S800
;TYPE:Perimeter
;WIDTH:0.419999
G1 F1200
G1 X125.618 Y113.004 E.00399
G1 X125.457 Y113.182 E.00753
G1 X125.2 Y113.282 E.00865
G1 X124.729 Y113.269 E.01477
G1 X124.493 Y113.141 E.00842
G1 X124.382 Y113.004 E.00553
G1 X117.631 Y101.311 E.42334
G1 X117.556 Y101.029 E.00915
G1 X117.62 Y100.767 E.00846
G1 X117.783 Y100.575 E.0079
G1 X118.043 Y100.463 E.00888
G1 X131.623 Y100.463 E.42579
G1 X131.881 Y100.525 E.00832
G1 X132.081 Y100.697 E.00827
G1 X132.292 Y101.085 E.01385
G1 X132.308 Y101.35 E.00832
G1 X132.241 Y101.533 E.00611
G1 X125.712 Y112.842 E.40944
M204 S1000
G1 X125.355 Y112.705 F10800
M204 S800
;TYPE:External perimeter
G1 F1200
G1 X125.291 Y112.816 E.00402
G1 X125.16 Y112.907 E.005
G1 X124.781 Y112.887 E.0119
G1 X124.709 Y112.816 E.00317
G1 X117.958 Y101.123 E.42334
G1 X117.945 Y100.963 E.00503
G1 X118.071 Y100.84 E.00552
G1 X131.623 Y100.84 E.42491
G1 X131.764 Y100.903 E.00484
G1 X131.939 Y101.25 E.01219
G1 X131.914 Y101.344 E.00305
G1 X125.385 Y112.653 E.40944
M204 S1000
;WIPE_START
G1 F8640
G1 X125.355 Y112.705 E-.01386
G1 X125.291 Y112.816 E-.02959
G1 X125.16 Y112.907 E-.03683
G1 X124.781 Y112.887 E-.08763
G1 X124.709 Y112.816 E-.02335
G1 X123.391 Y110.533 E-.60874
;WIPE_END
G1 Z.6 F720
G1 X125 Y124.213 F10800
G1 Z.2 F720
G1 E.8 F2100
M204 S800
;TYPE:Perimeter
G1 F1200
G1 X105.787 Y124.213 E.60241
G1 X105.787 Y85.787 E1.20482
G1 X144.213 Y85.787 E1.20482
M73 P1 R38
M73 Q1 S38
G1 X144.213 Y124.213 E1.20482
G1 X125.06 Y124.213 E.60053
M204 S1000
G1 X125 Y124.59 F10800
M204 S800
;TYPE:External perimeter
G1 F1200
G1 X105.41 Y124.59 E.61423
G1 X105.41 Y85.41 E1.22846
G1 X144.59 Y85.41 E1.22846
G1 X144.59 Y124.59 E1.22846
G1 X125.06 Y124.59 E.61235
M204 S1000
;WIPE_START
G1 F8640
G1 X125 Y124.59 E-.01385
G1 X121.595 Y124.59 E-.78615
;WIPE_END
G1 Z.6 F720
G1 X144.043 Y86.725 F10800
G1 Z.2 F720
G1 E.8 F2100
M204 S800
;TYPE:Solid infill
;WIDTH:0.422608
G1 F1200
G1 X143.445 Y86.126 E.02672
G1 X142.908 Y86.126 E.01695
G1 X143.874 Y87.092 E.04313
G1 X143.874 Y87.629 E.01695
G1 X142.371 Y86.126 E.06711
G1 X141.834 Y86.126 E.01695
G1 X143.874 Y88.166 E.09108
G1 X143.874 Y88.703 E.01695
G1 X141.297 Y86.126 E.11506
G1 X140.76 Y86.126 E.01695
G1 X143.874 Y89.24 E.13904
G1 X143.874 Y89.777 E.01695
G1 X140.223 Y86.126 E.16301
G1 X139.686 Y86.126 E.01695
G1 X143.874 Y90.314 E.18699
G1 X143.874 Y90.851 E.01695
G1 X139.149 Y86.126 E.21096
G1 X138.612 Y86.126 E.01695
G1 X143.874 Y91.388 E.23494
G1 X143.874 Y91.924 E.01692
G1 X138.076 Y86.126 E.25887
G1 X137.539 Y86.126 E.01695
G1 X143.874 Y92.461 E.28285
G1 X143.874 Y92.998 E.01695
G1 X137.002 Y86.126 E.30682
G1 X136.465 Y86.126 E.01695
G1 X143.874 Y93.535 E.3308
G1 X143.874 Y94.072 E.01695
G1 X135.928 Y86.126 E.35478
G1 X135.391 Y86.126 E.01695
M73 P1 R37
G1 X143.874 Y94.609 E.37875
G1 X143.874 Y95.146 E.01695
G1 X134.854 Y86.126 E.40273
G1 X134.317 Y86.126 E.01695
G1 X143.874 Y95.683 E.4267
G1 X143.874 Y96.22 E.01695
G1 X133.78 Y86.126 E.45068
G1 X133.243 Y86.126 E.01695
G1 X143.874 Y96.757 E.47466
G1 X143.874 Y97.294 E.01695
M73 Q2 S38
G1 X132.706 Y86.126 E.49863
G1 X132.169 Y86.126 E.01695
M73 P2 R37
G1 X143.874 Y97.831 E.52261
G1 X143.874 Y98.368 E.01695
M73 Q2 S37
G1 X131.632 Y86.126 E.54659
G1 X131.095 Y86.126 E.01695
G1 X143.874 Y98.905 E.57056
G1 X143.874 Y99.442 E.01695
G1 X130.558 Y86.126 E.59454
G1 X130.021 Y86.126 E.01695
G1 X143.874 Y99.979 E.61851
G1 X143.874 Y100.516 E.01695
G1 X129.484 Y86.126 E.64249
G1 X128.947 Y86.126 E.01695
G1 X143.874 Y101.053 E.66647
G1 X143.874 Y101.59 E.01695
G1 X128.41 Y86.126 E.69044
G1 X127.873 Y86.126 E.01695
G1 X143.874 Y102.127 E.71442
G1 X143.874 Y102.664 E.01695
G1 X127.336 Y86.126 E.7384
G1 X126.799 Y86.126 E.01695
G1 X143.874 Y103.201 E.76237
G1 X143.874 Y103.738 E.01695
G1 X126.262 Y86.126 E.78635
G1 X125.725 Y86.126 E.01695
G1 X143.874 Y104.275 E.81032
G1 X143.874 Y104.812 E.01695
G1 X125.188 Y86.126 E.8343
G1 X124.652 Y86.126 E.01692
G1 X143.874 Y105.348 E.85823
G1 X143.874 Y105.885 E.01695
G1 X124.115 Y86.126 E.88221
G1 X123.578 Y86.126 E.01695
G1 X143.874 Y106.422 E.90618
G1 X143.874 Y106.959 E.01695
G1 X123.041 Y86.126 E.93016
G1 X122.504 Y86.126 E.01695
G1 X143.874 Y107.496 E.95414
G1 X143.874 Y108.033 E.01695
M73 P3 R37
M73 Q3 S37
G1 X121.967 Y86.126 E.97811
G1 X121.43 Y86.126 E.01695
G1 X143.874 Y108.57 E1.00209
G1 X143.874 Y109.107 E.01695
G1 X120.893 Y86.126 E1.02606
G1 X120.356 Y86.126 E.01695
G1 X143.874 Y109.644 E1.05004
G1 X143.874 Y110.181 E.01695
G1 X119.819 Y86.126 E1.07402
G1 X119.282 Y86.126 E.01695
G1 X143.874 Y110.718 E1.09799
G1 X143.874 Y111.255 E.01695
G1 X118.745 Y86.126 E1.12197
G1 X118.208 Y86.126 E.01695
G1 X143.874 Y111.792 E1.14595
G1 X143.874 Y112.329 E.01695
G1 X132.634 Y101.089 E.50185
G1 X132.619 Y100.988 E.00322
G1 X132.539 Y100.804 E.00633
G1 X132.354 Y100.493 E.01142
G1 X132.177 Y100.312 E.00799
G1 X132.037 Y100.223 E.00524
G1 X131.877 Y100.159 E.00544
G1 X131.674 Y100.129 E.00648
G1 X117.671 Y86.126 E.62521
G1 X117.134 Y86.126 E.01695
G1 X131.131 Y100.124 E.62497
G1 X130.594 Y100.124 E.01695
G1 X116.597 Y86.126 E.62497
G1 X116.06 Y86.126 E.01695
G1 X130.057 Y100.124 E.62497
G1 X129.52 Y100.124 E.01695
G1 X115.523 Y86.126 E.62497
G1 X114.986 Y86.126 E.01695
G1 X128.983 Y100.124 E.62497
G1 X128.446 Y100.124 E.01695
G1 X114.449 Y86.126 E.62497
G1 X113.912 Y86.126 E.01695
G1 X127.909 Y100.124 E.62497
G1 X127.372 Y100.124 E.01695
M73 P4 R37
M73 Q4 S37
G1 X113.375 Y86.126 E.62497
G1 X112.838 Y86.126 E.01695
G1 X126.836 Y100.124 E.62499
G1 X126.299 Y100.124 E.01695
G1 X112.301 Y86.126 E.62499
G1 X111.764 Y86.126 E.01695
G1 X125.762 Y100.124 E.62499
G1 X125.225 Y100.124 E.01695
G1 X111.228 Y86.126 E.62497
G1 X110.691 Y86.126 E.01695
G1 X124.688 Y100.124 E.62497
G1 X124.151 Y100.124 E.01695
G1 X110.154 Y86.126 E.62497
G1 X109.617 Y86.126 E.01695
G1 X123.614 Y100.124 E.62497
G1 X123.077 Y100.124 E.01695
G1 X109.08 Y86.126 E.62497
G1 X108.543 Y86.126 E.01695
M73 P4 R36
G1 X122.54 Y100.124 E.62497
G1 X122.003 Y100.124 E.01695
G1 X108.006 Y86.126 E.62497
G1 X107.469 Y86.126 E.01695
G1 X121.466 Y100.124 E.62497
G1 X120.929 Y100.124 E.01695
G1 X106.932 Y86.126 E.62497
G1 X106.395 Y86.126 E.01695
G1 X120.392 Y100.124 E.62497
G1 X119.855 Y100.124 E.01695
G1 X106.126 Y86.395 E.61298
G1 X106.126 Y86.932 E.01695
M73 Q4 S36
G1 X119.318 Y100.124 E.589
G1 X118.781 Y100.124 E.01695
G1 X106.126 Y87.469 E.56503
G1 X106.126 Y88.006 E.01695
G1 X118.244 Y100.124 E.54105
G1 X117.919 Y100.145 E.01028
G1 X117.783 Y100.199 E.00462
G1 X106.126 Y88.543 E.52044
G1 X106.126 Y89.08 E.01695
G1 X117.461 Y100.414 E.50607
G1 X117.317 Y100.61 E.00768
G1 X117.264 Y100.754 E.00484
G1 X106.126 Y89.617 E.49727
G1 X106.126 Y90.154 E.01695
G1 X117.25 Y101.277 E.49665
G1 X117.333 Y101.473 E.00672
G1 X117.913 Y102.477 E.03661
G1 X106.126 Y90.691 E.52625
G1 X106.126 Y91.228 E.01695
G1 X118.648 Y103.749 E.55906
G1 X119.382 Y105.02 E.04634
M73 P5 R36
M73 Q5 S36
G1 X106.126 Y91.765 E.59184
G1 X106.126 Y92.302 E.01695
G1 X120.117 Y106.292 E.62465
G1 X120.851 Y107.563 E.04634
G1 X106.126 Y92.838 E.65745
G1 X106.126 Y93.375 E.01695
G1 X121.586 Y108.835 E.69026
G1 X122.32 Y110.106 E.04634
G1 X106.126 Y93.912 E.72304
G1 X106.126 Y94.449 E.01695
G1 X123.519 Y111.842 E.77657
M204 S1000
;WIPE_START
G1 F8640
G1 X121.069 Y109.392 E-.8
;WIPE_END
G1 Z.6 F720
G1 X132.456 Y101.449 F10800
G1 Z.2 F720
G1 E.8 F2100
M204 S800
G1 F1200
G1 X143.874 Y112.866 E.50977
G1 X143.874 Y113.403 E.01695
G1 X132.402 Y101.932 E.51218
G1 X132.206 Y102.272 E.01239
G1 X143.874 Y113.94 E.52096
G1 X143.874 Y114.477 E.01695
G1 X132.009 Y102.613 E.52973
G1 X131.813 Y102.953 E.01239
G1 X143.874 Y115.014 E.5385
G1 X143.874 Y115.551 E.01695
G1 X131.616 Y103.293 E.5473
G1 X131.42 Y103.634 E.01242
G1 X143.874 Y116.088 E.55605
G1 X143.874 Y116.625 E.01695
G1 X131.223 Y103.974 E.56485
G1 X131.027 Y104.315 E.01242
G1 X143.874 Y117.162 E.5736
G1 X143.874 Y117.699 E.01695
G1 X130.83 Y104.655 E.58239
G1 X130.633 Y104.995 E.01241
G1 X143.874 Y118.236 E.59119
G1 X143.874 Y118.772 E.01692
G1 X130.437 Y105.336 E.59992
G1 X130.24 Y105.676 E.01241
G1 X143.874 Y119.309 E.60871
G1 X143.874 Y119.846 E.01695
G1 X130.044 Y106.017 E.61747
G1 X129.847 Y106.357 E.01241
G1 X143.874 Y120.383 E.62626
G1 X143.874 Y120.92 E.01695
G1 X129.651 Y106.698 E.63501
G1 X129.454 Y107.038 E.01241
G1 X143.874 Y121.457 E.64381
G1 X143.874 Y121.994 E.01695
M73 P6 R36
M73 Q6 S36
G1 X129.258 Y107.378 E.65258
G1 X129.061 Y107.719 E.01243
G1 X143.874 Y122.531 E.66135
G1 X143.874 Y123.068 E.01695
G1 X128.865 Y108.059 E.67013
G1 X128.668 Y108.4 E.01243
G1 X143.874 Y123.605 E.6789
G1 X143.874 Y123.874 E.00849
G1 X143.605 Y123.874 E.00849
G1 X128.472 Y108.74 E.67569
G1 X128.275 Y109.08 E.01241
G1 X143.068 Y123.874 E.66051
G1 X142.531 Y123.874 E.01695
G1 X128.078 Y109.421 E.6453
G1 X127.882 Y109.761 E.01239
G1 X141.994 Y123.874 E.6301
G1 X141.457 Y123.874 E.01695
G1 X127.685 Y110.102 E.6149
G1 X127.489 Y110.442 E.01239
G1 X140.92 Y123.874 E.59969
G1 X140.383 Y123.874 E.01695
G1 X127.292 Y110.783 E.58449
G1 X127.096 Y111.123 E.01239
G1 X139.846 Y123.874 E.56929
G1 X139.309 Y123.874 E.01695
G1 X126.899 Y111.463 E.55411
G1 X126.703 Y111.804 E.01242
G1 X138.772 Y123.874 E.53888
G1 X138.235 Y123.874 E.01695
G1 X126.506 Y112.144 E.5237
G1 X126.31 Y112.485 E.01242
G1 X137.698 Y123.874 E.50848
G1 X137.162 Y123.874 E.01692
G1 X126.113 Y112.825 E.49332
G1 X125.916 Y113.165 E.01241
G1 X136.625 Y123.874 E.47814
G1 X136.088 Y123.874 E.01695
G1 X125.661 Y113.447 E.46555
G1 X125.56 Y113.519 E.00392
G1 X125.285 Y113.608 E.00913
G1 X135.551 Y123.874 E.45836
G1 X135.014 Y123.874 E.01695
G1 X124.755 Y113.615 E.45805
G1 X124.439 Y113.518 E.01044
G1 X124.265 Y113.394 E.00675
G1 X124.137 Y113.25 E.00608
G1 X123.79 Y112.65 E.02188
G1 X106.126 Y94.986 E.78867
G1 X106.126 Y95.523 E.01695
G1 X134.477 Y123.874 E1.26583
G1 X133.94 Y123.874 E.01695
M73 P7 R35
M73 Q7 S36
G1 X106.126 Y96.06 E1.24185
G1 X106.126 Y96.597 E.01695
G1 X133.403 Y123.874 E1.21787
G1 X132.866 Y123.874 E.01695
G1 X106.126 Y97.134 E1.1939
G1 X106.126 Y97.671 E.01695
M73 Q7 S35
G1 X132.329 Y123.874 E1.16992
G1 X131.792 Y123.874 E.01695
G1 X106.126 Y98.208 E1.14595
G1 X106.126 Y98.745 E.01695
G1 X131.255 Y123.874 E1.12197
G1 X130.718 Y123.874 E.01695
G1 X106.126 Y99.282 E1.09799
G1 X106.126 Y99.819 E.01695
G1 X130.181 Y123.874 E1.07402
G1 X129.644 Y123.874 E.01695
G1 X106.126 Y100.356 E1.05004
G1 X106.126 Y100.893 E.01695
G1 X129.107 Y123.874 E1.02606
G1 X128.57 Y123.874 E.01695
G1 X106.126 Y101.43 E1.00209
G1 X106.126 Y101.967 E.01695
G1 X128.033 Y123.874 E.97811
G1 X127.496 Y123.874 E.01695
G1 X106.126 Y102.504 E.95414
G1 X106.126 Y103.041 E.01695
M73 P8 R35
M73 Q8 S35
G1 X126.959 Y123.874 E.93016
G1 X126.422 Y123.874 E.01695
G1 X106.126 Y103.578 E.90618
G1 X106.126 Y104.115 E.01695
G1 X125.885 Y123.874 E.88221
G1 X125.348 Y123.874 E.01695
G1 X106.126 Y104.652 E.85823
G1 X106.126 Y105.189 E.01695
G1 X124.811 Y123.874 E.83426
G1 X124.274 Y123.874 E.01695
G1 X106.126 Y105.726 E.81028
G1 X106.126 Y106.262 E.01692
G1 X123.738 Y123.874 E.78635
G1 X123.201 Y123.874 E.01695
G1 X106.126 Y106.799 E.76237
G1 X106.126 Y107.336 E.01695
G1 X122.664 Y123.874 E.7384
G1 X122.127 Y123.874 E.01695
G1 X106.126 Y107.873 E.71442
G1 X106.126 Y108.41 E.01695
G1 X121.59 Y123.874 E.69044
G1 X121.053 Y123.874 E.01695
G1 X106.126 Y108.947 E.66647
G1 X106.126 Y109.484 E.01695
G1 X120.516 Y123.874 E.64249
G1 X119.979 Y123.874 E.01695
G1 X106.126 Y110.021 E.61851
G1 X106.126 Y110.558 E.01695
G1 X119.442 Y123.874 E.59454
G1 X118.905 Y123.874 E.01695
G1 X106.126 Y111.095 E.57056
G1 X106.126 Y111.632 E.01695
G1 X118.368 Y123.874 E.54659
G1 X117.831 Y123.874 E.01695
G1 X106.126 Y112.169 E.52261
G1 X106.126 Y112.706 E.01695
G1 X117.294 Y123.874 E.49863
G1 X116.757 Y123.874 E.01695
G1 X106.126 Y113.243 E.47466
G1 X106.126 Y113.78 E.01695
M73 P9 R35
M73 Q9 S35
G1 X116.22 Y123.874 E.45068
G1 X115.683 Y123.874 E.01695
G1 X106.126 Y114.317 E.4267
G1 X106.126 Y114.854 E.01695
G1 X115.146 Y123.874 E.40273
G1 X114.609 Y123.874 E.01695
G1 X106.126 Y115.391 E.37875
G1 X106.126 Y115.928 E.01695
G1 X114.072 Y123.874 E.35478
G1 X113.535 Y123.874 E.01695
G1 X106.126 Y116.465 E.3308
G1 X106.126 Y117.002 E.01695
G1 X112.998 Y123.874 E.30682
G1 X112.461 Y123.874 E.01695
G1 X106.126 Y117.539 E.28285
G1 X106.126 Y118.076 E.01695
G1 X111.924 Y123.874 E.25887
G1 X111.387 Y123.874 E.01695
G1 X106.126 Y118.613 E.2349
G1 X106.126 Y119.15 E.01695
G1 X110.85 Y123.874 E.21092
G1 X110.314 Y123.874 E.01692
G1 X106.126 Y119.686 E.18699
G1 X106.126 Y120.223 E.01695
G1 X109.777 Y123.874 E.16301
G1 X109.24 Y123.874 E.01695
G1 X106.126 Y120.76 E.13904
G1 X106.126 Y121.297 E.01695
G1 X108.703 Y123.874 E.11506
G1 X108.166 Y123.874 E.01695
G1 X106.126 Y121.834 E.09108
G1 X106.126 Y122.371 E.01695
G1 X107.629 Y123.874 E.06711
G1 X107.092 Y123.874 E.01695
G1 X106.126 Y122.908 E.04313
G1 X106.126 Y123.445 E.01695
G1 X106.724 Y124.043 E.0267
M204 S1000
M106 S84.15
;LAYER_CHANGE
;Z:0.4
;HEIGHT:0.2
;BEFORE_LAYER_CHANGE
G92 E0.0
;0.4


;WIPE_START
G1 F8640
G1 X106.126 Y123.445 E-.19527
G1 X106.126 Y122.908 E-.12399
G1 X107.092 Y123.874 E-.31544
G1 X107.629 Y123.874 E-.12399
G1 X107.503 Y123.748 E-.04131
;WIPE_END
G1 Z.4 F720
;AFTER_LAYER_CHANGE
;0.4
; stop printing object box-with-tri-hole.stl id:0 copy 0
G1 Z.8
G1 X106.724 Y127.189 F10800
G1 Z.4 F720
G1 E.8 F2100
;TYPE:Skirt/Brim
;WIDTH:0.42
G1 F3000
G1 X105 Y127.189 E.05405
G1 X103.752 Y126.798 E.04101
G1 X102.949 Y125.765 E.04102
G1 X102.811 Y125 E.02437
G1 X102.811 Y85 E1.25417
G1 X103.202 Y83.752 E.04101
G1 X104.235 Y82.949 E.04102
